!!!COM: Hugo Wolf
!!!CNT: Deutscher
!!!TXO: Deutsche 
!!!OTL: Grenzen Der Menschheit
!!!ODT: 1889/01/09
!!!ONM: No. 51
!!!LYR: Johann Wolfgang von Goethe
!!!ENC: Brian Bice
!!!YOR: 45 Songs on Poems of Goethe and Eichendorff, Dover Publications, 1995
!!NB: Vocal melody and text only encoded.
**kern	**silbe
*clefF4	*
*k[]	*
*M2/2	*
=6	=6
2r	.
4r	.
{[4E	{Wenn
=7	=7
2E]	|
2F	der
=8	=8
4A	ur-
2A-	-al-
4A-	-te
=9	=9
2G	hei-
4B-	-li-
4An	-ge
=10	=10
2G#	Va-
2E}	-ter}
=11	=11
4r	.
{2A	{mit
4Bn	ge-
=12	=12
2c	-las-
4c	-se-
4c	-ner
=13	=13
4c	Hand
4c	aus
6c	rol-
6Bn	-len-
6A	-den
=14	=14
4G#	Wol-
4E	-ken
6F#	seg-
6G#	-nen-
6A	-de
=15	=15
4G#	Blit-
4F#	-ze
6E	u2-
6E	-ber
6F#	die
=16	=16
2G#	Er-
2C#	-de
=17	=17
2.D#}	sa2t,}
4r	.
=18	=18
{2F#	{ku2ss
4A	ich
4A	den
=19	=19
2G#	letz-
2F#	-ten
=20	=20
4E#	Saum
2G#	sei-
4G#	-nes
=21	=21
(4.G#	Klei-
8c#)	|
4c#}	-des,}
4r	.
=22	=22
{2c#	{kind-
4c#	-li-
4c#	-che
=23	=23
4c#	Schau-
4E	-er
[2G#	treu
=24	=24
4G#]	|
2F#	in
4E#	der
=25	=25
1E#}	Brust.}
=28	=28
{2Cn	{Denn
2Cn	mit
=29	=29
2B-	Go2t-
2B-	-tern
=30	=30
2B-	soll
4A-	sich
4G	nicht
=31	=31
2F#	mes-
2An	-sen
=32	=32
1dn	ir-
=33	=33
2G	-gend
2B-	ein
=34	=34
[1E	Mensch.
=35	=35
4E]}	|}
4r	.
2r	.
=36	=36
{(4E	{Hebt
4F)	|
4F	er
4Bn	sich
=37	=37
2Bn	auf-
2E	-wa2rts
=38	=38
4r	.
2A	und
4A	be-
=39	=39
2A	-ru2hrt
4B	mit
4c	dem
=40	=40
2c	Schlei-
4d	-tel
4e-	die
=41	=41
[1e-	Ster-
=42	=42
2e-]	|
2a-}	-ne,}
=44	=44
4r	.
{2c	{nir-
4c	-gends
=45	=45
4.Bn	haf-
8G	-ten
4G	dann
4G	die
=46	=46
4G#	un-
2c	-si-
4c	-chern
=47	=47
(4.B	Soh-
8c)	|
2B}	-len,}
=48	=48
4r	.
{4B-	{und
4B-	mit
4B-	ihm
=49	=49
4A	spie-
4A	-len
(2A	Wol-
=50	=50
4B-)	|
2B-	-ken
4B-	und
=51	=51
(4.A	Win-
8B-)	|
2A}	-de.}
=55	=55
{2A	{Steht
4A	er
4A	mit
=56	=56
2.A	fe-
4A	-sten
=57	=57
2A	mar-
4A	-ki-
4A	-gen
=58	=58
4A	Knoch-
4A	-en
4A	auf
4A	der
=59	=59
2A	wohl-
2A	-ge-
=60	=60
2A	-gru2n-
4B	-de-
4C	-ten
=61	=61
2B	dau-
4B	-ern
4B	den
=62	=62
2B	Er-
4E	-de:
4r	.
=63	=63
2B	reicht
4B	er
4d	nicht
=64	=64
[2E#	auf,
8E#]}	|}
8r	.
4r	.
=65	=65
{2B	{nur
4B	mit
4d	der
=66	=66
2d	Ei-
2E#	-che
=67	=67
2F#	o-
4A	-der
4B	der
=68	=68
(2.c	Re-
4A)	-be
=69	=69
2G	sich
4G	zu
4G	ver-
=70	=70
2G	-glei-
4C}	-chen.}
4r	.
=74	=74
{2C	{Was
4C	un-
4C	-ter-
=75	=75
(4C	-schei-
4B-)	|
2B-	-det
=76	=76
2B-	Go2t-
4A-	-ter
4G	von
=77	=77
(4.F#	Men-
8D)	|
2D}	-schen?}
=78;	=78
4r	.
{4D	{Dass
4.B-	vie-
8B-	-le
=79	=79
2A	Wel-
2D	-len
=80	=80
4r	.
4F#	vor
4F#	je-
4F#	-nen
=81	=81
(4.F#	wan-
8G)	|
2G	-deln,
=82	=82
4r	.
4B-	ein
[2e-	e-
=83	=83
4e-]	|
2B-	-wi-
4G	-ger
=84	=84
[1A	Strom.
=85	=85
2.A]}	|}
4r	.
=86	=86
4r	.
{4c	{Uns
4c	hebt
4c	die
=87	=87
(4.B-	wel-
8A)	|
2A	-le,
=88	=88
4r	.
4A	ver-
4.d	-schlingt
8d	die
=89	=89
(4.d	Wel-
8G)	|
2G	-le,
=90	=90
4r	.
2G	und
4r	.
=91	=91
4r	.
4.F	wir
8r	.
8r	.
8F	ver-
=92	=92
[1An	-sin-
=93	=93
(4.An]	|
8D)	|
2D}	-ken.}
=96	=96
4r	.
{4c	{Ein
4c	klein-
4c	-er
=97	=97
4B	Ring
4B	be-
(2B	-grenzt
=98	=98
4B-)	|
2B-	un-
4B-	-ser
=99	=99
4.A	Le-
8F	|
2F}	-ben,}
=100	=100
2r	.
{2E	{und
=101	=101
2c	vie-
4c	-le
4c	Ge-
=102	=102
2B	-schlech-
2GG	-ter
=103	=103
(4GG-	rei-
4B-)	|
4B-	-hen
4B-	sich
=104	=104
2A	dau-
2FF}	-ernd}
=105	=105
{4AA	{an
2A	ih-
4A	-res
=106	=106
2G#	Da-
[2c	-seins
=107	=107
2c]	|
2B	un-
=108	=108
1B-	-end-
=109	=109
2D	-li-
2D	-che
=110	=110
4A	Ket-
4AA}	-te.}
2r	.
*-	*-
